X:1
T: American Hornpipe
T: 1st setting
R:Reel
I:speed 232
Q:232
K:A
M:4/4
L:1/8
|:A2((3BcB) B2((3cde)|ec dB cA ((3GFE) |A2 ((3BcB) B2 ((3cde)|ec ((3dcB) A2E2|
A2((3BcB) B2((3cde)|ec dB cA ((3GFE)|A2 ((3BcB) B2 ((3cde)|((3efe) ((3dcB) A2A,2:|
|:a2((3fga) g2e2|f2ga bge2|a2 ((3fga) g2e2|fe fg a2 ((3efg)|
a2((3fga) g2e2|ff ga bg ((3efg)|a2 ((3cde) f2 ((3Bcd)|((3efe) ((3dcB) A2A,2:|
